assets/images/icons/ico-slide-6.svg

<svg width="26" height="32" viewBox="0 0 26 32" fill="none" xmlns="http://www.w3.org/2000/svg">
<path d="M10.186 12H9V4H10.186V12Z" fill="#0000FF"/>
<path d="M11.9535 12V4H14.5349C15.2752 4 15.8702 4.18576 16.3198 4.55729C16.7733 4.92882 17 5.45486 17 6.13542V6.70833C17 7.41667 16.7733 7.96701 16.3198 8.35938C15.8702 8.75174 15.2752 8.94792 14.5349 8.94792H13.1395V12H11.9535ZM14.4128 4.97917H13.1395V7.96875H14.4128C15.343 7.96875 15.8081 7.51389 15.8081 6.60417V6.23958C15.8081 5.39931 15.343 4.97917 14.4128 4.97917Z" fill="#0000FF"/>
<path d="M12.3858 21.3388C12.3858 22.184 12.181 22.8388 11.7716 23.3033C11.3655 23.7678 10.8393 24 10.1929 24C9.54653 24 9.01861 23.7582 8.60914 23.2747C8.20305 22.7874 8 22.1022 8 21.2189V17.7811C8 16.8978 8.20305 16.2145 8.60914 15.731C9.01861 15.2437 9.54653 15 10.1929 15C10.8156 15 11.3232 15.2189 11.7157 15.6567C12.1083 16.0907 12.3046 16.7056 12.3046 17.5013V17.7011H11.264V17.5926C11.264 16.5799 10.9069 16.0736 10.1929 16.0736C9.4247 16.0736 9.04061 16.6732 9.04061 17.8725V19.3458C9.34856 18.7405 9.82234 18.4378 10.4619 18.4378C11.0237 18.4378 11.4839 18.6701 11.8426 19.1345C12.2047 19.5952 12.3858 20.2519 12.3858 21.1047V21.3388ZM9.04061 21.1161V21.3217C9.04061 22.3915 9.4247 22.9264 10.1929 22.9264C10.5584 22.9264 10.8426 22.7951 11.0457 22.5324C11.2487 22.2697 11.3503 21.8661 11.3503 21.3217V21.1161C11.3503 20.0463 10.9645 19.5114 10.1929 19.5114C9.4247 19.5114 9.04061 20.0463 9.04061 21.1161Z" fill="#0000FF"/>
<path d="M15.9188 18.9518C15.6244 18.9518 15.3942 19.0355 15.2284 19.203C15.0626 19.3706 14.9611 19.5857 14.9239 19.8484H13.9239V15.1142H17.8122V16.1878H14.9239V18.672C15.2081 18.1732 15.6294 17.9239 16.1878 17.9239C16.78 17.9239 17.2301 18.1409 17.5381 18.5749C17.846 19.0051 18 19.6371 18 20.4708V21.4074C18 22.2335 17.8037 22.8731 17.4112 23.3261C17.022 23.7754 16.5245 24 15.9188 24C15.3096 24 14.8071 23.7849 14.4112 23.3547C14.0186 22.9245 13.8223 22.3211 13.8223 21.5444V21.2189H14.8579V21.3617C14.8579 22.4048 15.2115 22.9264 15.9188 22.9264C16.2403 22.9264 16.4941 22.8008 16.6802 22.5495C16.8663 22.2944 16.9594 21.9137 16.9594 21.4074V20.5393C16.9594 19.481 16.6125 18.9518 15.9188 18.9518Z" fill="#0000FF"/>
<path d="M18.5036 25.3938C16.1649 28.2281 13.7819 29.783 12.7819 30.3613C11.6908 29.844 8.98514 28.3314 6.46008 25.1059C3.6574 21.5257 1.03794 15.7862 1.1458 6.83439L6.08701 0.75H19.6025L24.5411 6.83118C24.5925 16.0749 21.283 22.0255 18.5036 25.3938L19.0821 25.8711L18.5036 25.3938Z" stroke="#DF0112" stroke-width="1.5"/>
</svg>

<svg width="26" height="32" fill="none" xmlns="http://www.w3.org/2000/svg"><path d="M10.186 12H9V4h1.186v8zm1.768 0V4h2.58c.741 0 1.336.186 1.786.557.453.372.68.898.68 1.578v.573c0 .709-.227 1.259-.68 1.651-.45.393-1.045.589-1.785.589h-1.396V12h-1.185zm2.459-7.02h-1.274v2.989h1.274c.93 0 1.395-.455 1.395-1.365V6.24c0-.84-.465-1.26-1.395-1.26zm-2.027 16.359c0 .845-.205 1.5-.614 1.964-.406.465-.933.697-1.58.697-.645 0-1.173-.242-1.583-.725C8.203 22.787 8 22.102 8 21.219V17.78c0-.883.203-1.566.61-2.05.409-.487.937-.731 1.583-.731.623 0 1.13.219 1.523.657.392.434.589 1.049.589 1.844v.2h-1.041v-.108c0-1.013-.357-1.52-1.071-1.52-.768 0-1.152.6-1.152 1.8v1.473c.308-.605.781-.908 1.42-.908.563 0 1.023.232 1.382.697.362.46.543 1.117.543 1.97v.234zm-3.345-.223v.206c0 1.07.384 1.604 1.152 1.604.365 0 .65-.13.853-.394.203-.262.304-.666.304-1.21v-.206c0-1.07-.386-1.605-1.157-1.605-.768 0-1.152.535-1.152 1.605zm6.878-2.164c-.295 0-.525.083-.69.251a1.11 1.11 0 00-.305.645h-1v-4.734h3.888v1.074h-2.888v2.484c.284-.499.705-.748 1.264-.748.592 0 1.042.217 1.35.65.308.431.462 1.063.462 1.897v.936c0 .826-.196 1.466-.589 1.92a1.89 1.89 0 01-1.492.673c-.61 0-1.112-.215-1.508-.645-.392-.43-.589-1.034-.589-1.81v-.326h1.036v.143c0 1.043.353 1.564 1.06 1.564a.897.897 0 00.762-.377c.186-.255.28-.635.28-1.142v-.868c0-1.058-.348-1.587-1.041-1.587z" fill="#00F"/><path d="M18.504 25.394c-2.34 2.834-4.722 4.389-5.722 4.967-1.091-.517-3.797-2.03-6.322-5.255-2.803-3.58-5.422-9.32-5.314-18.272L6.087.75h13.515l4.94 6.081c.05 9.244-3.259 15.195-6.038 18.563l.578.477-.578-.477z" stroke="#DF0112" stroke-width="1.5"/></svg>
